airplane-settings.svg

<svg fill="currentColor" viewBox="0 0 24 24"><path d="M20.09 4.56 16.2 8.45l2.12 9.19-1.41 1.42L13 11.63 9.13 15.5 9.5 18l-1.08 1.06-1.77-3.19-3.18-1.76 1.06-1.07L7 13.4l3.9-3.9-7.43-3.88 1.42-1.41 9.19 2.12 3.89-3.89a1.49 1.49 0 0 1 2.12 0c.59.56.59 1.53 0 2.12M7 24h2v-2H7zm4 0h2v-2h-2zm4 0h2v-2h-2z"/></svg>

<svg  viewBox="0 0 24 24" fill="currentColor"><path  d="M20.09 4.56L16.2 8.45L18.32 17.64L16.91 19.06L13 11.63L9.13 15.5L9.5 18L8.42 19.06L6.65 15.87L3.47 14.11L4.53 13.04L7 13.4L10.9 9.5L3.47 5.62L4.89 4.21L14.08 6.33L17.97 2.44C18.55 1.85 19.5 1.85 20.09 2.44C20.68 3 20.68 3.97 20.09 4.56M7 24H9V22H7V24M11 24H13V22H11V24M15 24H17V22H15V24Z"/></svg>
